X: 16618
T: Handsome Young Maidens, The
R: jig
M: 6/8
K: Amajor
|:g|aed cdB|Ace a3|bee dee|Bee bag|
aed cdB|Ace aga|bee dBe|ABA A2:|
|:B|c2 A EAc|d2f fed|cde aec|Bff fed|c2A EAc|
d2f fed|1 cde aec|dBG A2:|2 ece fdf|geg ba||ga6||

